X: 3
T: For The Sake Of Old Decency
R: reel
M: 4/4
L: 1/8
K: Gmaj
d2BG AGEG|DGBG A2Bc|d2BG AGEG|dBAG EG~G2:||~G3B d2Bd|eaag egg2|1~G3B d2ge|dega bgg2:|2 bgag egdB|~d2bg ageg||


Tune 2777	Setting 29686

